**harm	**harte	**timestamp	**phrase	**leadinstrument	**kern
*M4/4	*M4/4	*	*	*	*
*G:	*G:	*	*	*	*G:
1r;	N	0	.	r	1r;
=1	=1	=1	=1	=1	=1
*>A_intro	*>A_intro	*>A_intro	*>A_intro	*>A_intro	*>A_intro
2I	G:maj	0.418	newline	synthesizer	2G 2b 2dd
2I	G:sus4(b7,9)	1.609	.	synthesizer	2G 2b 2dd
=2	=2	=2	=2	=2	=2
2I	G:maj	2.8	.	synthesizer	2G 2b 2dd
2Vb	D:maj/3	3.992	.	synthesizer	2d 2F# 2a
=3	=3	=3	=3	=3	=3
1IV	C:maj(9)	5.183	.	synthesizer	1C 1e 1g
=4	=4	=4	=4	=4	=4
1IV	C:maj(9)	7.565	.	synthesizer	1C 1e 1g
=5	=5	=5	=5	=5	=5
2I	G:maj	9.948	newline	voice	2G 2b 2dd
2I	G:sus4(b7,9)	11.151	.	voice	2G 2b 2dd
=6	=6	=6	=6	=6	=6
2I	G:maj	12.355	.	voice	2G 2b 2dd
2Vb	D:maj/3	13.559	.	voice	2d 2F# 2a
=7	=7	=7	=7	=7	=7
1IV	C:maj(9)	14.762	.	voice	1C 1e 1g
=8	=8	=8	=8	=8	=8
1IV	C:maj(9)	17.17	.	voice	1C 1e 1g
=9	=9	=9	=9	=9	=9
2I	G:maj	19.577	newline	voice	2G 2b 2dd
2I	G:sus4(b7,9)	20.767	.	voice	2G 2b 2dd
=10	=10	=10	=10	=10	=10
2I	G:maj	21.957	.	voice	2G 2b 2dd
2Vb	D:maj/3	23.147	.	voice	2d 2F# 2a
=11	=11	=11	=11	=11	=11
1IV	C:maj(9)	24.337	.	voice	1C 1e 1g
=12	=12	=12	=12	=12	=12
1IV	C:maj(9)	26.717	.	voice	1C 1e 1g
=13	=13	=13	=13	=13	=13
*>B_verse	*>B_verse	*>B_verse	*>B_verse	*>B_verse	*>B_verse
2I	G:maj	29.097	newline	voice	2G 2b 2dd
2I	G:sus4(b7,9)	30.295	.	voice	2G 2b 2dd
=14	=14	=14	=14	=14	=14
2I	G:maj	31.493	.	voice	2G 2b 2dd
2Vb	D:maj/3	32.69	.	voice	2d 2F# 2a
=15	=15	=15	=15	=15	=15
1IV	C:maj(9)	33.888	.	voice	1C 1e 1g
=16	=16	=16	=16	=16	=16
1IV	C:maj(9)	36.284	.	voice	1C 1e 1g
=17	=17	=17	=17	=17	=17
2I	G:maj	38.68	newline	voice	2G 2b 2dd
2I	G:sus4(b7,9)	39.873	.	voice	2G 2b 2dd
=18	=18	=18	=18	=18	=18
2I	G:maj	41.067	.	voice	2G 2b 2dd
2Vb	D:maj/3	42.26	.	voice	2d 2F# 2a
=19	=19	=19	=19	=19	=19
1IV	C:maj(9)	43.454	.	voice	1C 1e 1g
=20	=20	=20	=20	=20	=20
1IV	C:maj(9)	45.841	.	voice	1C 1e 1g
=21	=21	=21	=21	=21	=21
1ii7	A:min7	48.228	newline	voice	1A 1cc 1ee 1gg
=22	=22	=22	=22	=22	=22
1Ib	G:maj(9)/3	50.619	.	voice	1g 1B 1dd
=23	=23	=23	=23	=23	=23
1IV	C:maj(9)	53.011	.	voice	1C 1e 1g
=24	=24	=24	=24	=24	=24
1Ib	G:maj(9)/3	55.402	.	voice	1g 1B 1dd
=25	=25	=25	=25	=25	=25
1ii7	A:min7	57.793	newline	voice	1A 1cc 1ee 1gg
=26	=26	=26	=26	=26	=26
1Ib	G:maj(9)/3	60.191	.	voice	1g 1B 1dd
=27	=27	=27	=27	=27	=27
1IV	C:maj(9)	62.588	.	voice	1C 1e 1g
=28	=28	=28	=28	=28	=28
1V	D:sus4(b7,9)	64.986	.	voice	1D 1f# 1a
=29	=29	=29	=29	=29	=29
*>C_chorus	*>C_chorus	*>C_chorus	*>C_chorus	*>C_chorus	*>C_chorus
2I	G:maj	67.384	newline	voice	2G 2b 2dd
2Ib	G:maj/3	68.581	.	voice	2g 2B 2dd
=30	=30	=30	=30	=30	=30
2IV	C:maj	69.778	.	voice	2C 2e 2g
4V	D:sus4	70.976	.	voice	4D 4f# 4a
4V	D:maj(9)	71.575	.	voice	4D 4f# 4a
=31	=31	=31	=31	=31	=31
2I	G:maj	72.173	.	voice	2G 2b 2dd
2Ib	G:maj/3	73.371	.	voice	2g 2B 2dd
=32	=32	=32	=32	=32	=32
2IV	C:maj	74.568	.	voice	2C 2e 2g
4V	D:sus4	75.766	.	voice	4D 4f# 4a
4V	D:maj(9)	76.364	.	voice	4D 4f# 4a
=33	=33	=33	=33	=33	=33
2I	G:maj	76.963	newline	voice	2G 2b 2dd
2Ib	G:maj/3	78.156	.	voice	2g 2B 2dd
=34	=34	=34	=34	=34	=34
2IV	C:maj	79.349	.	voice	2C 2e 2g
2II7b	A:9/3	80.541	.	voice	2a 2C# 2ee 2gg
=35	=35	=35	=35	=35	=35
1v7	D:min11	81.734	.	voice	1D 1f 1a 1cc
=36	=36	=36	=36	=36	=36
1v7	D:min11	84.119	.	voice	1D 1f 1a 1cc
=37	=37	=37	=37	=37	=37
*>D_interlude	*>D_interlude	*>D_interlude	*>D_interlude	*>D_interlude	*>D_interlude
2I	G:maj	86.505	newline	voice	2G 2b 2dd
2Vb	D:maj/3	87.701	.	voice	2d 2F# 2a
=38	=38	=38	=38	=38	=38
2vi7	E:min7	88.896	.	voice	2E 2g 2b 2dd
2V	D:maj	90.092	.	voice	2D 2f# 2a
=39	=39	=39	=39	=39	=39
1IV7	C:maj9(#11)	91.288	.	voice	1C 1e 1g 1b
=40	=40	=40	=40	=40	=40
4IV7	C:maj9	93.68	.	voice	4C 4e 4g 4b
4V7	D:7	94.278	.	voice	4D 4f# 4a 4cc
4vi7	E:min7	94.875	.	voice	4E 4g 4b 4dd
4Vb	D:maj/3	95.473	.	voice	4d 4F# 4a
=41	=41	=41	=41	=41	=41
*>B_verse	*>B_verse	*>B_verse	*>B_verse	*>B_verse	*>B_verse
2I	G:maj	96.071	newline	voice	2G 2b 2dd
2Vb	D:maj/3	97.272	.	voice	2d 2F# 2a
=42	=42	=42	=42	=42	=42
2vi7	E:min7	98.472	.	voice	2E 2g 2b 2dd
2V	D:maj	99.672	.	voice	2D 2f# 2a
=43	=43	=43	=43	=43	=43
2IV	C:maj(9)	100.872	.	voice	2C 2e 2g
2IV7	C:maj9(#11)	102.073	.	voice	2C 2e 2g 2b
=44	=44	=44	=44	=44	=44
1IV	C:maj(9)	103.273	.	voice	1C 1e 1g
=45	=45	=45	=45	=45	=45
2I	G:maj	105.674	newline	voice	2G 2b 2dd
2Vb	D:maj/3	106.869	.	voice	2d 2F# 2a
=46	=46	=46	=46	=46	=46
2vi7	E:min7	108.065	.	voice	2E 2g 2b 2dd
2V	D:maj	109.261	.	voice	2D 2f# 2a
=47	=47	=47	=47	=47	=47
2IV	C:maj(9)	110.457	.	voice	2C 2e 2g
2IV7	C:maj9(#11)	111.653	.	voice	2C 2e 2g 2b
=48	=48	=48	=48	=48	=48
1IV	C:maj(9)	112.849	.	voice	1C 1e 1g
=49	=49	=49	=49	=49	=49
1ii7	A:min7	115.24	newline	voice	1A 1cc 1ee 1gg
=50	=50	=50	=50	=50	=50
1Ib	G:maj(9)/3	117.626	.	voice	1g 1B 1dd
=51	=51	=51	=51	=51	=51
1IV	C:maj(9)	120.011	.	voice	1C 1e 1g
=52	=52	=52	=52	=52	=52
1Ib	G:maj(9)/3	122.396	.	voice	1g 1B 1dd
=53	=53	=53	=53	=53	=53
1ii7	A:min7	124.781	newline	voice	1A 1cc 1ee 1gg
=54	=54	=54	=54	=54	=54
1Ib	G:maj(9)/3	127.172	.	voice	1g 1B 1dd
=55	=55	=55	=55	=55	=55
1IV	C:maj(9)	129.563	.	voice	1C 1e 1g
=56	=56	=56	=56	=56	=56
1V	D:sus4(b7,9)	131.955	.	voice	1D 1f# 1a
=57	=57	=57	=57	=57	=57
*>C_chorus	*>C_chorus	*>C_chorus	*>C_chorus	*>C_chorus	*>C_chorus
2I	G:maj	134.346	newline	voice	2G 2b 2dd
2Ib	G:maj/3	135.539	.	voice	2g 2B 2dd
=58	=58	=58	=58	=58	=58
2IV	C:maj	136.732	.	voice	2C 2e 2g
2V	D:sus4	137.925	.	voice	2D 2f# 2a
=59	=59	=59	=59	=59	=59
2I	G:maj	139.118	.	voice	2G 2b 2dd
2Ib	G:maj/3	140.311	.	voice	2g 2B 2dd
=60	=60	=60	=60	=60	=60
2IV	C:maj	141.504	.	voice	2C 2e 2g
2V	D:sus4	142.697	.	voice	2D 2f# 2a
=61	=61	=61	=61	=61	=61
2I	G:maj	143.89	newline	voice	2G 2b 2dd
2Ib	G:maj/3	145.084	.	voice	2g 2B 2dd
=62	=62	=62	=62	=62	=62
2IV	C:maj	146.279	.	voice	2C 2e 2g
2II7b	A:9/3	147.474	.	voice	2a 2C# 2ee 2gg
=63	=63	=63	=63	=63	=63
1v7	D:min11	148.669	.	voice	1D 1f 1a 1cc
=64	=64	=64	=64	=64	=64
1v7	D:min11	151.059	.	voice	1D 1f 1a 1cc
=65	=65	=65	=65	=65	=65
2I	G:maj	153.448	newline	voice	2G 2b 2dd
2Ib	G:maj/3	154.649	.	voice	2g 2B 2dd
=66	=66	=66	=66	=66	=66
2IV	C:maj	155.851	.	voice	2C 2e 2g
2V	D:sus4	157.052	.	voice	2D 2f# 2a
=67	=67	=67	=67	=67	=67
2I	G:maj	158.253	.	voice	2G 2b 2dd
2Ib	G:maj/3	159.454	.	voice	2g 2B 2dd
=68	=68	=68	=68	=68	=68
2IV	C:maj	160.655	.	voice	2C 2e 2g
2V	D:sus4	161.857	.	voice	2D 2f# 2a
=69	=69	=69	=69	=69	=69
2I	G:maj	163.058	newline	voice	2G 2b 2dd
2Ib	G:maj/3	164.23	.	voice	2g 2B 2dd
=70	=70	=70	=70	=70	=70
2IV	C:maj	165.401	.	voice	2C 2e 2g
2II7b	A:9/3	166.573	.	voice	2a 2C# 2ee 2gg
=71	=71	=71	=71	=71	=71
1v7	D:min11	167.745	.	voice	1D 1f 1a 1cc
=72	=72	=72	=72	=72	=72
1v7	D:min11	170.088	.	voice	1D 1f 1a 1cc
=73	=73	=73	=73	=73	=73
*>C2_chorus	*>C2_chorus	*>C2_chorus	*>C2_chorus	*>C2_chorus	*>C2_chorus
*A-:	*A-:	*	*	*	*A-:
2I	A-:maj	172.431	newline	voice	2A- 2cc 2ee-
2Ib	A-:maj/3	173.651	.	voice	2a- 2C 2ee-
=74	=74	=74	=74	=74	=74
2IV	D-:maj	174.871	.	voice	2D- 2f 2a-
4V	E-:sus4	176.091	.	voice	4E- 4g 4b-
4V	E-:maj(9)	176.701	.	voice	4E- 4g 4b-
=75	=75	=75	=75	=75	=75
2I	A-:maj	177.311	.	voice	2A- 2cc 2ee-
2Ib	A-:maj/3	178.531	.	voice	2a- 2C 2ee-
=76	=76	=76	=76	=76	=76
2IV	D-:maj	179.751	.	voice	2D- 2f 2a-
4V	E-:sus4	180.971	.	voice	4E- 4g 4b-
4V	E-:maj(9)	181.581	.	voice	4E- 4g 4b-
=77	=77	=77	=77	=77	=77
2I	A-:maj	182.191	newline	voice	2A- 2cc 2ee-
2Ib	A-:maj/3	183.39	.	voice	2a- 2C 2ee-
=78	=78	=78	=78	=78	=78
2IV	D-:maj	184.588	.	voice	2D- 2f 2a-
2II7b	B-:9/3	185.787	.	voice	2b- 2D 2ff 2aa-
=79	=79	=79	=79	=79	=79
1v7	E-:min11	186.986	.	voice	1E- 1g- 1b- 1dd-
=80	=80	=80	=80	=80	=80
1v7	E-:min11	189.383	.	voice	1E- 1g- 1b- 1dd-
=81	=81	=81	=81	=81	=81
1v7	E-:min11	191.78	newline	voice	1E- 1g- 1b- 1dd-
=82	=82	=82	=82	=82	=82
1v7	E-:min11	194.173	.	voice	1E- 1g- 1b- 1dd-
=83	=83	=83	=83	=83	=83
2I	A-:maj	196.565	newline	voice	2A- 2cc 2ee-
2Ib	A-:maj/3	197.756	.	voice	2a- 2C 2ee-
=84	=84	=84	=84	=84	=84
2IV	D-:maj	198.947	.	voice	2D- 2f 2a-
4V	E-:sus4	200.138	.	voice	4E- 4g 4b-
4V	E-:maj(9)	200.734	.	voice	4E- 4g 4b-
=85	=85	=85	=85	=85	=85
2I	A-:maj	201.329	.	voice	2A- 2cc 2ee-
2Ib	A-:maj/3	202.52	.	voice	2a- 2C 2ee-
=86	=86	=86	=86	=86	=86
2IV	D-:maj	203.711	.	voice	2D- 2f 2a-
4V	E-:sus4	204.902	.	voice	4E- 4g 4b-
4V	E-:maj(9)	205.498	.	voice	4E- 4g 4b-
=87	=87	=87	=87	=87	=87
2I	A-:maj	206.093	newline	voice	2A- 2cc 2ee-
2Ib	A-:maj/3	207.295	.	voice	2a- 2C 2ee-
=88	=88	=88	=88	=88	=88
2IV	D-:maj	208.496	.	voice	2D- 2f 2a-
2II7b	B-:9/3	209.698	.	voice	2b- 2D 2ff 2aa-
=89	=89	=89	=89	=89	=89
1v7	E-:min11	210.899	.	voice	1E- 1g- 1b- 1dd-
=90	=90	=90	=90	=90	=90
1v7	E-:min11	213.302	.	voice	1E- 1g- 1b- 1dd-
=91	=91	=91	=91	=91	=91
*>D2_interlude	*>D2_interlude	*>D2_interlude	*>D2_interlude	*>D2_interlude	*>D2_interlude
2I	A-:maj	215.705	newline	voice	2A- 2cc 2ee-
2Vb	E-:maj/3	216.896	.	voice	2e- 2G 2b-
=92	=92	=92	=92	=92	=92
2vi7	F:min7	218.087	.	voice	2F 2a- 2cc 2ee-
2V	E-:maj	219.278	.	voice	2E- 2g 2b-
=93	=93	=93	=93	=93	=93
2IV	D-:maj(9)	220.469	.	voice	2D- 2f 2a-
2IV7	D-:maj9(#11)	221.66	.	voice	2D- 2f 2a- 2cc
=94	=94	=94	=94	=94	=94
1IV	D-:maj(9)	222.851	.	voice	1D- 1f 1a-
=95	=95	=95	=95	=95	=95
2I	A-:maj	225.233	newline	voice	2A- 2cc 2ee-
2Vb	E-:maj/3	226.432	.	voice	2e- 2G 2b-
=96	=96	=96	=96	=96	=96
2vi7	F:min7	227.632	.	voice	2F 2a- 2cc 2ee-
2V	E-:maj	228.831	.	voice	2E- 2g 2b-
=97	=97	=97	=97	=97	=97
1IV	D-:maj(9)	230.031	.	voice	1D- 1f 1a-
=98	=98	=98	=98	=98	=98
1IV	D-:maj(9)	232.429	.	voice	1D- 1f 1a-
=99	=99	=99	=99	=99	=99
*>E_coda_fadeout	*>E_coda_fadeout	*>E_coda_fadeout	*>E_coda_fadeout	*>E_coda_fadeout	*>E_coda_fadeout
1IV	D-:maj(9)	234.828	newline	voice	1D- 1f 1a-
=100	=100	=100	=100	=100	=100
1IV	D-:maj(9)	237.226	.	voice	1D- 1f 1a-
=101	=101	=101	=101	=101	=101
1IV	D-:maj(9)	239.623	.	voice	1D- 1f 1a-
=102	=102	=102	=102	=102	=102
1IV	D-:maj(9)	242.02	.	voice	1D- 1f 1a-
=103	=103	=103	=103	=103	=103
1IV	D-:maj(9)	244.417	.	voice	1D- 1f 1a-
=104	=104	=104	=104	=104	=104
1IV	D-:maj(9)	246.815	.	voice	1D- 1f 1a-
=105	=105	=105	=105	=105	=105
1IV	D-:maj(9)	249.212	.	voice	1D- 1f 1a-
=106	=106	=106	=106	=106	=106
1IV	D-:maj(9)	251.609	.	voice	1D- 1f 1a-
=107	=107	=107	=107	=107	=107
1IV	D-:maj(9)	254.007	.	voice	1D- 1f 1a-
=108	=108	=108	=108	=108	=108
1IV	D-:maj(9)	256.404	.	voice	1D- 1f 1a-
=109	=109	=109	=109	=109	=109
1IV	D-:maj(9)	258.801	.	voice	1D- 1f 1a-
=110	=110	=110	=110	=110	=110
1IV	D-:maj(9)	261.199	.	voice	1D- 1f 1a-
=111	=111	=111	=111	=111	=111
1IV	D-:maj(9)	263.596	.	voice	1D- 1f 1a-
=112	=112	=112	=112	=112	=112
1IV	D-:maj(9)	265.993	.	voice	1D- 1f 1a-
=113	=113	=113	=113	=113	=113
1IV	D-:maj(9)	268.39	.	voice	1D- 1f 1a-
=114	=114	=114	=114	=114	=114
1IV	D-:maj(9)	270.788	.	voice	1D- 1f 1a-
=115	=115	=115	=115	=115	=115
1IV	D-:maj(9)	273.185	.	voice	1D- 1f 1a-
=116	=116	=116	=116	=116	=116
1IV	D-:maj(9)	275.582	.	voice	1D- 1f 1a-
=117	=117	=117	=117	=117	=117
1IV	D-:maj(9)	277.98	.	voice	1D- 1f 1a-
=118	=118	=118	=118	=118	=118
1IV	D-:maj(9)	280.377	.	voice	1D- 1f 1a-
=119	=119	=119	=119	=119	=119
1IV	D-:maj(9)	282.774	.	voice	1D- 1f 1a-
=120	=120	=120	=120	=120	=120
1IV	D-:maj(9)	285.172	.	voice	1D- 1f 1a-
=121	=121	=121	=121	=121	=121
1IV	D-:maj(9)	287.569	.	voice	1D- 1f 1a-
=122	=122	=122	=122	=122	=122
1IV	D-:maj(9)	289.966	.	voice	1D- 1f 1a-
=123	=123	=123	=123	=123	=123
1IV	D-:maj(9)	292.363	.	voice	1D- 1f 1a-
=124	=124	=124	=124	=124	=124
1IV	D-:maj(9)	294.761	.	voice	1D- 1f 1a-
=125	=125	=125	=125	=125	=125
1IV	D-:maj(9)	297.158	.	voice	1D- 1f 1a-
=126	=126	=126	=126	=126	=126
1IV	D-:maj(9)	299.555	.	voice	1D- 1f 1a-
=127	=127	=127	=127	=127	=127
1IV	D-:maj(9)	301.953	.	voice	1D- 1f 1a-
=128	=128	=128	=128	=128	=128
1IV	D-:maj(9)	304.35	.	voice	1D- 1f 1a-
=129	=129	=129	=129	=129	=129
1IV	D-:maj(9)	306.747	.	voice	1D- 1f 1a-
1r;	N	316.936	.	r	1r;
1r;	N	320	.	r	1r;
*-	*-	*-	*-	*-	*-
!!!OTL: Man In The Mirror
!!!COC: Michael Jackson
!!!BillboardChartDate: 1988/04/23
!!!BillboardPeak: 1
!!!BillboardWeeksOnChart: 16
!!!SampleTargetRank: 11
!!!SampleActualRank: 11
!!!SampleID#: 1188
!!!RDF**harmony: **recip + pitch class of root + harmonic quality
!!!RDF**harte: Chris Harte's syntax, used by MIREX
!!!RDF**phrase: newline = linebreak in original McGill transcription
!!!RDF**timestamp: McGill audio timestamp in seconds
!!!RDF**leadinstrument: original McGill primary instrumentation annotation
!!!RDT: 2017/01/12/
!!!ENC: Nathaniel Condit-Schultz
!!!EST: Awating manual error checking and editing.
